X:135
T:John Brosnan's
M:2/4
L:1/8
R:Polka
K:G
"G"G2 g>e|dB Be|dB GA|BA AB|"D"G2 g>e|"G"dB Be|dB "D"AB|"G"G4:|!
ga/g/ fg|ed Bd|ga/g/ fg|"C"e3f|"G"g2 fg|ed Be|dB "D"AB|"G"G4:|!
"G"g2 "D"a2|"Em"b3a|gf ef|"G"g3d|"C"ef/e/ "G"dB|"C"ef/e/ "G"dB|"D"dB AB|"G"G4:|

